src/icons/hicolor/scalable/apps/yast-alternatives.svg

<?xml version="1.0" encoding="UTF-8" standalone="no"?>
<svg
   xmlns:dc="http://purl.org/dc/elements/1.1/"
   xmlns:cc="http://creativecommons.org/ns#"
   xmlns:rdf="http://www.w3.org/1999/02/22-rdf-syntax-ns#"
   xmlns:svg="http://www.w3.org/2000/svg"
   xmlns="http://www.w3.org/2000/svg"
   width="128"
   height="128"
   id="svg11300"
   version="1.0"
   style="display:inline;enable-background:new"
   viewBox="0 0 128 128">
  <title
     id="title4162">Adwaita Icon Template</title>
  <defs
     id="defs3">
    <linearGradient
       gradientUnits="userSpaceOnUse"
       y2="17"
       y1="17"
       x2="30"
       x1="2"
       id="a-6"
       gradientTransform="matrix(4,0,0,4,0,170)">
      <stop
         id="stop1624-2"
         offset="0"
         stop-color="#c0bfbc" />
      <stop
         id="stop1626-6"
         offset=".14286"
         stop-color="#c0bfbc" />
      <stop
         id="stop1628-1"
         offset=".25"
         stop-color="#deddda" />
      <stop
         id="stop1630-8"
         offset=".5"
         stop-opacity=".93852"
         stop-color="#c0bfbc" />
      <stop
         id="stop1632-7"
         offset="1"
         stop-opacity=".98361"
         stop-color="#c0bfbc" />
    </linearGradient>
  </defs>
  <metadata
     id="metadata4">
    <rdf:RDF>
      <cc:Work
         rdf:about="">
        <dc:format>image/svg+xml</dc:format>
        <dc:type
           rdf:resource="http://purl.org/dc/dcmitype/StillImage" />
        <dc:creator>
          <cc:Agent>
            <dc:title>GNOME Design Team</dc:title>
          </cc:Agent>
        </dc:creator>
        <dc:source />
        <cc:license
           rdf:resource="http://creativecommons.org/licenses/by-sa/4.0/" />
        <dc:title>Adwaita Icon Template</dc:title>
        <dc:subject>
          <rdf:Bag />
        </dc:subject>
        <dc:date />
        <dc:rights>
          <cc:Agent>
            <dc:title />
          </cc:Agent>
        </dc:rights>
        <dc:publisher>
          <cc:Agent>
            <dc:title />
          </cc:Agent>
        </dc:publisher>
        <dc:identifier />
        <dc:relation />
        <dc:language />
        <dc:coverage />
        <dc:description />
        <dc:contributor>
          <cc:Agent>
            <dc:title />
          </cc:Agent>
        </dc:contributor>
      </cc:Work>
      <cc:License
         rdf:about="http://creativecommons.org/licenses/by-sa/4.0/">
        <cc:permits
           rdf:resource="http://creativecommons.org/ns#Reproduction" />
        <cc:permits
           rdf:resource="http://creativecommons.org/ns#Distribution" />
        <cc:requires
           rdf:resource="http://creativecommons.org/ns#Notice" />
        <cc:requires
           rdf:resource="http://creativecommons.org/ns#Attribution" />
        <cc:permits
           rdf:resource="http://creativecommons.org/ns#DerivativeWorks" />
        <cc:requires
           rdf:resource="http://creativecommons.org/ns#ShareAlike" />
      </cc:License>
    </rdf:RDF>
  </metadata>
  <path
     id="rect847-3"
     d="m 20,16 c -4.432,0 -8,3.568 -8,8 v 88 c 0,4.432 3.568,8 8,8 h 88 c 4.432,0 8,-3.568 8,-8 V 24 c 0,-4.432 -3.568,-8 -8,-8 z m 0,8 h 88 v 88 H 20 Z"
     style="display:inline;opacity:1;fill:#000000;fill-opacity:1;stroke:none;stroke-width:1;stroke-linecap:butt;stroke-linejoin:round;stroke-miterlimit:4;stroke-dasharray:none;stroke-opacity:1;enable-background:new" />
  <path
     id="rect847"
     d="M 20 12 C 15.568 12 12 15.568 12 20 L 12 108 C 12 112.432 15.568 116 20 116 L 108 116 C 112.432 116 116 112.432 116 108 L 116 20 C 116 15.568 112.432 12 108 12 L 20 12 z M 20 20 L 108 20 L 108 108 L 20 108 L 20 20 z "
     style="opacity:1;fill:#241f31;fill-opacity:1;stroke:none;stroke-width:1;stroke-linecap:butt;stroke-linejoin:round;stroke-miterlimit:4;stroke-dasharray:none;stroke-opacity:1" />
  <rect
     y="20"
     x="20"
     height="88"
     width="88"
     id="rect852"
     style="opacity:1;fill:#f6f5f4;fill-opacity:1;stroke:none;stroke-width:1;stroke-linecap:butt;stroke-linejoin:round;stroke-miterlimit:4;stroke-dasharray:none;stroke-opacity:1" />
  <path
     id="path854"
     d="M 106.34375,26.34375 55.582031,77.105469 33.207031,57.925781 22.792969,70.074219 56.417969,98.894531 117.65625,37.65625 Z"
     style="color:#000000;font-style:normal;font-variant:normal;font-weight:normal;font-stretch:normal;font-size:medium;line-height:normal;font-family:sans-serif;font-variant-ligatures:normal;font-variant-position:normal;font-variant-caps:normal;font-variant-numeric:normal;font-variant-alternates:normal;font-feature-settings:normal;text-indent:0;text-align:start;text-decoration:none;text-decoration-line:none;text-decoration-style:solid;text-decoration-color:#000000;letter-spacing:normal;word-spacing:normal;text-transform:none;writing-mode:lr-tb;direction:ltr;text-orientation:mixed;dominant-baseline:auto;baseline-shift:baseline;text-anchor:start;white-space:normal;shape-padding:0;clip-rule:nonzero;display:inline;overflow:visible;visibility:visible;opacity:1;isolation:auto;mix-blend-mode:normal;color-interpolation:sRGB;color-interpolation-filters:linearRGB;solid-color:#000000;solid-opacity:1;vector-effect:none;fill:#33d17a;fill-opacity:1;fill-rule:nonzero;stroke:none;stroke-width:16;stroke-linecap:butt;stroke-linejoin:miter;stroke-miterlimit:4;stroke-dasharray:none;stroke-dashoffset:0;stroke-opacity:1;color-rendering:auto;image-rendering:auto;shape-rendering:auto;text-rendering:auto;enable-background:accumulate" />
</svg>

<?xml version="1.0" encoding="UTF-8"?>
<svg version="1.0" viewBox="0 0 128 128" xmlns="http://www.w3.org/2000/svg">
<path d="m20 16c-4.432 0-8 3.568-8 8v88c0 4.432 3.568 8 8 8h88c4.432 0 8-3.568 8-8v-88c0-4.432-3.568-8-8-8zm0 8h88v88h-88z"/>
<path d="m20 12c-4.432 0-8 3.568-8 8v88c0 4.432 3.568 8 8 8h88c4.432 0 8-3.568 8-8v-88c0-4.432-3.568-8-8-8h-88zm0 8h88v88h-88v-88z" fill="#241f31"/>
<rect x="20" y="20" width="88" height="88" fill="#f6f5f4"/>
<path d="m106.34 26.344-50.762 50.762-22.375-19.18-10.414 12.148 33.625 28.82 61.238-61.238z" fill="#33d17a"/>
</svg>
